X:1
T:Title
%%score { 1 | ( 2 3 ) }
L:1/8
Q:1/4=106
M:4/4
K:G
V:1 treble nm="Grand Piano"
V:2 bass 
V:3 bass 
V:1
 G2 G2 [FA]2 [FA]2 | B2 B2 G2 D2 | B2 B2 c2 c2 | d2 d2 B4 | d2 d2 [Ge]2 [Ge]2 | c2 c2 [Fd]2 [Fd]2 | %6
w: W.~J.~Kirkpatrick * * *||||||
 B2 B2 d2 B2 |[M:3/4] AG [A,DF][^CE][K:bass] [F,D]2 |[M:1/4] D2 | %9
w: |||
[M:4/4][K:treble] [DGB]2 z2 B2 B2 | c4 B4 | [FA]2 [FA][FA] [Fd]2 [Fc]2 | B6 B>c | d2 d2 B2 G2 | %14
w: |||||
 E2 [Ee]2 [Ed][Ec][EB][EA] | [B,DG]4 [DFB]2 [CFA]2 | [B,G]6 z2 |] %17
w: |||
V:2
 [G,B,D]2 [G,B,D]2 [D,D]2 [D,D]2 | [G,DG]2 [G,DG]2 [G,B,D]2 [G,B,]2 | %2
 [G,DG]2 [G,DG]2 [A,DF]2 [A,DF]2 | [B,DG]2 [B,DG]2 [G,DG]4 | %4
 [G,B,G]2 [G,B,G]2[K:bass] [E,B,]2 [E,B,]2 | [A,E]2 [A,E]2 [D,A,]2 [D,A,]2 | %6
 [G,D]2 [G,B,D]2 [F,A,D]2[K:treble] [G,DG]2 |[M:3/4] [A,D]-[A,DE][K:bass] z G, D,2 |[M:1/4] D,2 | %9
[M:4/4] G,,2 z2[K:treble] [G,DG]2 [G,DG]2 | [G,EG]4 [G,DG]4 | [D,D]2 [D,D][D,D] [D,A,]2 [D,D]2 | %12
 [G,DG]6 [G,DG]>[A,DG] | [B,DG]2 [B,DG]2 [G,DG]2[K:bass] [G,B,D]2 | %14
 [C,C]2 [C,C]2 [C,G,][C,G,][C,C][C,C] | D,4 D,2 D,2 | G,,6 z2 |] %17
V:3
 x8 | x8 | x8 | x8 | x4[K:bass] x4 | x8 | x6[K:treble] x2 |[M:3/4] .F2[K:bass] A,,2 z2 | %8
[M:1/4] x2 |[M:4/4] x4[K:treble] x4 | x8 | x8 | x8 | x6[K:bass] x2 | x8 | x8 | x8 |] %17

